src/icons/Logo.svg

<svg width="64" height="64" viewBox="0 0 64 64" fill="none" xmlns="http://www.w3.org/2000/svg">
<g clip-path="url(#clip0_68_394)">
<path d="M-6.40002 -6.39999H70.4V70.4H-6.40002V-6.39999Z" fill="white"/>
<path d="M-6.40002 -6.39999H70.4V70.4H-6.40002V-6.39999Z" fill="white"/>
<path d="M-6.40002 -6.39999H70.4V70.4H-6.40002V-6.39999Z" fill="#F7DF1E"/>
<path d="M42.9917 50.0003C44.281 52.105 45.958 53.6523 48.9243 53.6523C51.4163 53.6523 53.0084 52.407 53.0084 50.686C53.0084 48.6237 51.3726 47.8933 48.6299 46.6936L47.1264 46.0487C42.7867 44.1997 39.9033 41.8833 39.9033 36.987C39.9033 32.4763 43.3404 29.0427 48.711 29.0427C52.535 29.0427 55.2836 30.3736 57.2646 33.8581L52.5816 36.865C51.5503 35.016 50.4381 34.2877 48.711 34.2877C46.9497 34.2877 45.833 35.4053 45.833 36.865C45.833 38.6693 46.9507 39.3997 49.531 40.517L51.0344 41.161C56.1443 43.3523 59.0293 45.5864 59.0293 50.6086C59.0293 56.0233 54.776 58.9897 49.0637 58.9897C43.4784 58.9897 39.87 56.328 38.1043 52.8397L42.9917 50.0003ZM21.7467 50.5214C22.6917 52.1976 23.551 53.6147 25.6174 53.6147C27.593 53.6147 28.8396 52.8417 28.8396 49.8357V29.386H34.8536V49.917C34.8536 56.1443 31.2027 58.9787 25.8733 58.9787C21.058 58.9787 18.2693 56.4867 16.8514 53.4853L21.7467 50.5214Z" fill="#AB181F"/>
<mask id="mask0_68_394" style="mask-type:luminance" maskUnits="userSpaceOnUse" x="0" y="0" width="64" height="16">
<path d="M0 0H64V15.5653H0V0Z" fill="white"/>
</mask>
<g mask="url(#mask0_68_394)">
<path d="M0 -8.32001H66.151V15.5653H0V-8.32001Z" fill="#AB181F"/>
</g>
</g>
<defs>
<clipPath id="clip0_68_394">
<rect width="64" height="64" fill="white"/>
</clipPath>
</defs>
</svg>

<svg width="64" height="64" fill="none" xmlns="http://www.w3.org/2000/svg"><g clip-path="url(#a)"><path d="M-6.4-6.4h76.8v76.8H-6.4V-6.4Z" fill="#fff"/><path d="M-6.4-6.4h76.8v76.8H-6.4V-6.4Z" fill="#fff"/><path d="M-6.4-6.4h76.8v76.8H-6.4V-6.4Z" fill="#F7DF1E"/><path d="M42.992 50c1.289 2.105 2.966 3.652 5.932 3.652 2.492 0 4.084-1.245 4.084-2.966 0-2.062-1.635-2.793-4.378-3.992l-1.504-.645c-4.34-1.85-7.223-4.166-7.223-9.062 0-4.51 3.437-7.944 8.808-7.944 3.824 0 6.573 1.33 8.554 4.815l-4.683 3.007c-1.032-1.849-2.144-2.577-3.871-2.577-1.761 0-2.878 1.117-2.878 2.577 0 1.804 1.118 2.535 3.698 3.652l1.503.644c5.11 2.191 7.995 4.425 7.995 9.448 0 5.414-4.253 8.38-9.965 8.38-5.586 0-9.194-2.661-10.96-6.15L42.992 50Zm-21.245.521c.945 1.677 1.804 3.094 3.87 3.094 1.976 0 3.223-.773 3.223-3.78V29.387h6.014v20.531c0 6.227-3.651 9.062-8.98 9.062-4.816 0-7.605-2.492-9.023-5.494l4.896-2.964Z" fill="#AB181F"/><mask id="b" style="mask-type:luminance" maskUnits="userSpaceOnUse" x="0" y="0" width="64" height="16"><path d="M0 0h64v15.565H0V0Z" fill="#fff"/></mask><g mask="url(#b)"><path d="M0-8.32h66.151v23.885H0V-8.32Z" fill="#AB181F"/></g></g><defs><clipPath id="a"><path fill="#fff" d="M0 0h64v64H0z"/></clipPath></defs></svg>
